X:30
T:AVANT DEUX de SAINT-HERBLON
Z: YVES BELOTTEAU
Z: Yves BELOTTEAU
M:4/4
L:1/8
Q:1/4=120
K:C
|:g3/2 z/2 ec dd/2f/2ec|f3/2 z/2 ee/2c/2 dBc3/2 z/2:|
GGcd/2e/2 dcdd/2d/2|dfee dc/2d/2ec|GGcd/2e/2 dcdd/2d/2|dfee de/2d/2c3/2
z/2 |
Gccd/2e/2 dcA3/2 z/2 |Gccd/2e/2 dcdd|Gccd/2e/2 dcA3/2 z/2 |Gccd/2e/2 ddc
3/2 z/2 |
cede/2d/2 ced3/2 z/2 |cggf/2e/2 dfec|cede/2d/2 ced3/2 z/2 |cggf/2e/2 ddc
3/2 z/2 |
c3/2 z/2 d3/2 z/2 d3/2|
